common/src/main/resources/files/expui/fileTypes/idl.svg

<!--
  - The MIT License (MIT)
  -
  - Copyright (c) 2015-2024 Elior "Mallowigi" Boukhobza
  -
  - Permission is hereby granted, free of charge, to any person obtaining a copy
  - of this software and associated documentation files (the "Software"), to deal
  - in the Software without restriction, including without limitation the rights
  - to use, copy, modify, merge, publish, distribute, sublicense, and/or sell
  - copies of the Software, and to permit persons to whom the Software is
  - furnished to do so, subject to the following conditions:
  -
  - The above copyright notice and this permission notice shall be included in all
  - copies or substantial portions of the Software.
  -
  - THE SOFTWARE IS PROVIDED "AS IS", WITHOUT WARRANTY OF ANY KIND, EXPRESS OR
  - IMPLIED, INCLUDING BUT NOT LIMITED TO THE WARRANTIES OF MERCHANTABILITY,
  - FITNESS FOR A PARTICULAR PURPOSE AND NONINFRINGEMENT. IN NO EVENT SHALL THE
  - AUTHORS OR COPYRIGHT HOLDERS BE LIABLE FOR ANY CLAIM, DAMAGES OR OTHER
  - LIABILITY, WHETHER IN AN ACTION OF CONTRACT, TORT OR OTHERWISE, ARISING FROM,
  - OUT OF OR IN CONNECTION WITH THE SOFTWARE OR THE USE OR OTHER DEALINGS IN THE
  - SOFTWARE.
  -->

<svg data-big="true" version="1.1" xmlns="http://www.w3.org/2000/svg" x="0px" y="0px" width="16px" height="16px"
     viewBox="0 0 512 512" fill="#9C27B0">
  <path
    d="M0,302.6098633l51.236824-59.0530548c0,0,40.9140091,47.400589,90.0395432,65.5400543l-52.7012329,59.4484253C88.5751343,368.5452881,42.2346764,352.3914185,0,302.6098633z M148.0234833,301.4150085l51.111084-57.8582001c-52.5665131-20.923996-90.1653519-66.599472-90.1653519-66.599472l-51.371582,59.3135223C103.399025,287.1123657,148.0234833,301.4150085,148.0234833,301.4150085z M206.016449,236.0103912l48.1911774-54.5521851c-50.9673157-20.2593994-90.5606079-67.2646255-90.5606079-67.2646255l-48.1912155,55.4772568C161.1314545,221.7071991,206.016449,236.0103912,206.016449,236.0103912z M368.2978516,191.4305267l45.900238-51.3712006c-73.0863953-27.1861725-134.3046265,26.0357208-134.3046265,26.0357208l-27.5365601,32.5770111C312.6946716,166.544693,368.2978516,191.4305267,368.2978516,191.4305267z M194.2830963,263.8611755c58.2894135-30.1955261,115.3300629-7.1335144,115.3300629-7.1335144l51.5782166-57.4535217c0,0-54.0937805-24.1049805-118.4655457,12.1646271L194.2830963,263.8611755z M132.1124878,333.434906c58.289444-30.1960754,115.3210754-7.1335144,115.3210754-7.1335144l55.0461731-61.1373291c0,0-51.1560211-22.6491241-117.8636322,11.2121277L132.1124878,333.434906z M240.5786285,334.0638428c-59.0890198-21.9576111-116.6417465,11.3739319-116.6417465,11.3739319l-25.5959473,26.4672546C185.4606323,399.9268799,240.5786285,334.0638428,240.5786285,334.0638428z M465.3989868,263.1066284L512,210.3245239c-40.5996094-48.7303467-88.0899963-66.734375-88.0899963-66.734375l-46.0709534,51.5510712C430.9715576,218.7965546,465.3989868,263.1066284,465.3989868,263.1066284z M408.0169373,328.421875l50.8505554-57.9031677c-41.4890137-50.841507-87.7395935-67.6062469-87.7395935-67.6062469l-52.0813904,58.0736847C372.5383911,283.9407043,408.0169373,328.421875,408.0169373,328.421875z M257.4329529,330.012085c51.730957,20.8340759,89.6801758,67.794342,89.6801758,67.794342l54.372345-61.9637146c-44.1303711-51.5516052-88.9704285-67.2646179-88.9704285-67.2646179L257.4329529,330.012085z"/>
</svg>

<svg xmlns="http://www.w3.org/2000/svg" width="16" height="16" fill="#9C27B0" data-big="true" viewBox="0 0 512 512"><path d="m0 302.61 51.237-59.053s40.914 47.4 90.04 65.54l-52.702 59.448S42.235 352.391 0 302.61m148.023-1.195 51.112-57.858c-52.567-20.924-90.166-66.6-90.166-66.6l-51.371 59.314c45.801 50.841 90.425 65.144 90.425 65.144m57.993-65.405 48.192-54.552c-50.968-20.26-90.561-67.264-90.561-67.264l-48.191 55.477c45.675 52.036 90.56 66.34 90.56 66.34m162.282-44.58 45.9-51.37c-73.086-27.187-134.305 26.035-134.305 26.035l-27.536 32.577c60.338-32.127 115.94-7.241 115.94-7.241m-174.015 72.431c58.29-30.195 115.33-7.133 115.33-7.133l51.578-57.454s-54.093-24.105-118.465 12.165zm-62.17 69.574c58.289-30.196 115.32-7.134 115.32-7.134l55.047-61.137s-51.156-22.65-117.864 11.212zm108.466.629c-59.09-21.958-116.642 11.374-116.642 11.374L98.34 371.905c87.12 28.022 142.238-37.841 142.238-37.841m224.82-70.957L512 210.325c-40.6-48.73-88.09-66.735-88.09-66.735l-46.07 51.551c53.132 23.656 87.559 67.966 87.559 67.966m-57.382 65.315 50.85-57.903c-41.489-50.842-87.74-67.607-87.74-67.607l-52.08 58.074c53.491 22.955 88.97 67.436 88.97 67.436m-150.584 1.59c51.73 20.834 89.68 67.794 89.68 67.794l54.372-61.963c-44.13-51.552-88.97-67.265-88.97-67.265z"/></svg>
